X:2
T:We Wish You A Merry Christmas
C:Christmas
M:3/4
K:D
L: 1/8
uA2 | "D" d2 (de)dc | "G" B2 uB2 uB2 | "E" e2 (ef)ed | "A" c2 uA2 uA2 |
w: We wish you a mer-ry Christ-mas, We wish you a mer-ry Christ-mas, We
"D" vf2 (fg)fe | "G" d2 B2 "D" BB | "G" A2 "A" ud2 uc2 | "D" d4 |]
w: wish you a mer-ry Christ-mas and a hap-py new Year.
uA2 | d2 d2 d2 | "A" uc4 uc2 | "E7" (d2 c2) B2 | "A" A4 ue2 |
w: Good tid-ings we bring to you and your friends,  Good
"D" (f2 e2) d2 | a2 A2 AA | "G" (B2 e2) "A" uc2 | "D" d4 ||
w: tid-ings for Christ-mas and a Hap-py new year.

